X:801
L:1/8
Q:1/8=120
M:3/4
K:D
 fe | d2 d2 ag | f2 f2 d'c' | b2 b2 b2 | b2 z2 (gf) | e2 e2 e2 | e4 fg | a2 fdec | d2 z2 :: de | 
 a2 fdd'b | a2 (fd)(eg) | gfed bg | f2 e2 fg |"^Trio" a2 | f2 z2 c'2 | g2 z2 g2 | e2 z2 a2 | 
 f2 z2 z2 | B2 B2 B2 | g6 | f2 a2 dc | d2 z2 :: A2 | dcdef^g | aaaa b^g | .a.a.a.a b^g | a6 | 
 a^g=gfge | .d.d.d.d (ec) | .d.d.d.d"^D Capo" (ec) | d2 z2 ||

